X:46
T:Flop Eared Mule
C:Traditional
M:4/4
L:1/8
Q:1/8=460
K:D
a2^g2 =g2|fgfe dedB|ABAG FED^D|E^DEG F=DEF|DEFG ABde|
fgfe dedB|ABAG FED^D|E^DEG F=DEF|D2AB cde=f|
f=f^ff dcdd|ABAG FED^D|E^DEG F=DEF|DEFG A2d2|
[a2f2][g2e2] [f2d2]e2|ABAG FED2|E2EG F2E2|D2d2 c2d2|
K:A
|:ecAc ecAc|efed cBA^A|BABd cABG|ABcd e2cd|
eAAA fAAA|efed cBAc|BABd cABG|1 A2AA A2cd:|2 A2AA A4|
